X:1
T:Hide Me
T:Hide Me
T:S. D. Goodale
T:Carrie Lee Bowyer, 1908
T:Public Domain Courtesy of the Cyber Hymnal™
C:S. D. Goodale
Z:Public Domain
Z:Courtesy of the Cyber Hymnal™
%%score 1 ( 2 3 )
L:1/8
Q:1/4=100
M:4/4
K:Ab
V:1 treble 
V:2 bass 
V:3 bass 
V:1
 [CE]2 [Ec]2 [DB]>[CA] [DF]>[DA] | [DG]4 [DG]4 | [DB]2 [DB]2 [Dc]>[DB] [DF]>[DG] | [CE]6 z2 | %4
w: 1.~Hide me, O my Sav- ior,|hide me,|Let me lean up- on Thy|breast;|
w: 2.~Hide me, O my Sav- ior,|hide me,|I am com- ing home at|last;|
w: 3.~Hide me, O my Sav- ior,|hide me,|Till I reach that gold- en|shore,|
 [CE]2 [Ec]2 [DB]>[CA] [DF]>[DA] | [DG]4 [DG]4 | [DB]2 [DB]2 [Ec]>[DB] [DE]>[DB] | [CA]6 z2 || %8
w: I am wea- ry, hea- vy|la- den,|And I come to Thee for|rest.|
w: Just a few more years of|strug- gle,|Then life’s storms will all be|past.|
w: There to dwell in Thy dear|pre- sence,|Will be joy for- ev- er-|more.|
"^Refrain" [Fd]2 [Fd]2 [Fd]>[Fd] [FA]>[_FB] | [Ec]4 [Ec]4 | [Ae]2 [Ae]2 [Af]>[Ae] [Ac]>[EA] | %11
w: |||
w: Hide me, O my Sav- ior,|hide me,|I am com- ing home to|
w: |||
 [EB]6 z2 | [CE]2 [Ec]2 [DB]>[CA] [DF]>[DA] | [DG]4 [DG]4 | [DB]2 [DB]2 [Ec]>[DB] [DE]>[DB] | %15
w: ||||
w: Thee;|Let me feel Thine arms a-|round me,|Let me now Thy glo- ry|
w: ||||
 [CA]8 |] %16
w: |
w: see.|
w: |
V:2
 [A,,A,]2 [A,,A,]2 [A,,A,]>[A,,A,] [D,A,]>[F,A,] | [E,B,]4 [E,B,]4 | %2
 [E,G,]2 [E,G,]2 [E,A,]>[E,G,] [E,G,]>[E,G,] | [A,,A,]6 z2 | %4
 [A,,A,]2 [A,,A,]2 [A,,A,]>[A,,A,] [D,A,]>[F,A,] | [E,B,]4 [E,B,]4 | %6
 [E,G,]2 [E,G,]2 [E,A,]>[E,G,] [E,G,]>[E,G,] | [A,,A,]6 z2 || %8
 [D,A,]2 [D,A,]2 [D,A,]>[D,A,] [D,A,]>[D,A,] | [A,,A,]4 [A,,A,]4 | %10
 [A,C]2 [A,C]2 [A,D]>[A,C] A,>[C,A,] | G,6 x2 | [A,,A,]2 [A,,A,]2 [A,,A,]>[A,,A,] [D,A,]>[F,A,] | %13
 [E,B,]4 [E,B,]4 | [E,G,]2 [E,G,]2 [E,A,]>[E,G,] [E,G,]>[E,G,] | [A,,A,]8 |] %16
V:3
 x8 | x8 | x8 | x8 | x8 | x8 | x8 | x8 || x8 | x8 | x6 A,3/2 x/ | (E,3 F,E,>D,C,>B,,) | x8 | x8 | %14
 x8 | x8 |] %16

